packages/ui/public/icons/check.svg

<svg width="15" height="11" viewBox="0 0 15 11" fill="none" xmlns="http://www.w3.org/2000/svg">
<path d="M13.7695 0.980469C14.1504 1.33203 14.1504 1.94727 13.7695 2.29883L6.26953 9.79883C5.91797 10.1797 5.30273 10.1797 4.95117 9.79883L1.20117 6.04883C0.820312 5.69727 0.820312 5.08203 1.20117 4.73047C1.55273 4.34961 2.16797 4.34961 2.51953 4.73047L5.5957 7.80664L12.4512 0.980469C12.8027 0.599609 13.418 0.599609 13.7695 0.980469Z" fill="white"/>
</svg>

<svg width="15" height="11" fill="none" xmlns="http://www.w3.org/2000/svg"><path d="M13.77.98c.38.352.38.967 0 1.319l-7.5 7.5a.903.903 0 0 1-1.319 0l-3.75-3.75a.903.903 0 0 1 0-1.319.903.903 0 0 1 1.319 0l3.076 3.077L12.45.98a.903.903 0 0 1 1.319 0Z" fill="#fff"/></svg>
